!!!OTL: Rueckblick eines alten Burschen.
!!!OTL-incipit: O ALTE BURSCHENHERRLICHKEIT
!!!COM: Studentenweise
!!!ARE: Europa, Mitteleuropa, Deutschland
!!!SCT: F0473
!!!TXL: @@DE
!!!YEM: Copyright 1995, estate of Helmut Schaffrath.
**kern	**text
*ICvox	*
*M4/4	*
*met(c)	*
*k[]	*
*C:	*
!LO:TX:a:t=Klagend; die beiden letzten Verse belebt.	!
{8eL	1._O
8fJ	.
=1	=1
4g	al-
4g	-te
8gL	Bur-
8aJ	.
8fL	-ſchen-
8dJ	.
=2	=2
4c	-herr-
4e	-lich-
4e	-keit,
8r}	.
{8e	wo-
=3	=3
4.d	-hin
8e	biſt
4f	du
4g	ver-
=4	=4
4f	-ſchwunden?
4e	.
4r}	.
{4g	Nie
=5	=5
4.g	kehrſt
8e	du
4.cc/	wie-
8b	-der,
=6/	=6/
4.b/	gold'-
8a	-ne
4a}	Ʒeit,
{4a	ſo
=7	=7
4.g	froh
8a	und
8gL	un-
8e	.
8fJ	.
8d	-ge-
=8	=8
4d	-bun-
4c	-den!
4r}	.
{4e	Ver-
=9	=9
4d	-ge-
4g	-bens
4g	ſpäh'
4b/	ich
=10	=10
8b/L	rings
8a	.
8ccJ	.
8b/	um-
4a}	-her,
{4d	ich
=11	=11
4d	fin-
4a	-de
4a	dei-
4cc/	-ne
=12	=12
8cc/L	Spur
8b	.
8ddJ	.
8cc/	nicht
8b/L	mehr.
8a	.
8gJ}	.
{8g	O
=13	=13
4.g	je-
8e	-rum,
4.cc/	je-
8b/	-rum,
=14	=14
8b/L	je-
8aJ	.
4a	-rum!
4r}	.
{4a	O
=15	=15
4.g	quae
8a	mu-
8gL	-ta-
8e	.
8fJ	.
8d	-tio
=16	=16
2d	re-
4c;}	-rum!
==	==
!!!AGN: Studenten -, Burschenschafts - Lied
!!!ONB: ESAC (Essen Associative Code) Database: FINK
!!!AMT: simple quadruple
!!!AIN: vox
!!!EED: Helmut Schaffrath
!!!EEV: 1.0
!!!GTL: Vaterlands- und Heimathslieder.
!!Text: Studentenlied
!!!source: Musikalischer Hausschatz der Deutschen. Eine Sammlung von über 1000 Liedern und Gesängen mit Singstimmen und Klavierbegleitung. Leipzig, Litterarisches Verlags-Haus.
!!!page: 300
!!!ENC: Anna Maria Matuszewska
!!!EEV: 2024/03/14
*-	*-
